assets/Kissing face with smiling eyes/Flat/kissing_face_with_smiling_eyes_flat.svg

<svg width="32" height="32" viewBox="0 0 32 32" fill="none" xmlns="http://www.w3.org/2000/svg">
<path d="M15.9989 29.9978C25.3333 29.9978 29.9978 23.7303 29.9978 15.9989C29.9978 8.26751 25.3333 2 15.9989 2C6.66443 2 2 8.26751 2 15.9989C2 23.7303 6.66443 29.9978 15.9989 29.9978Z" fill="#FFB02E"/>
<path d="M8.70712 13.7071C8.91854 13.4957 9.1143 13.3338 9.36292 13.2157C9.60762 13.0994 9.95826 13 10.5 13C11.0417 13 11.3924 13.0994 11.6371 13.2157C11.8857 13.3339 12.0815 13.4957 12.2929 13.7071C12.6834 14.0976 13.3166 14.0976 13.7071 13.7071C14.0976 13.3166 14.0976 12.6834 13.7071 12.2929C13.4185 12.0043 13.036 11.6661 12.4955 11.4093C11.951 11.1506 11.3017 11 10.5 11C9.69832 11 9.04896 11.1506 8.50452 11.4093C7.96399 11.6661 7.58146 12.0043 7.29288 12.2929C6.90236 12.6834 6.90237 13.3166 7.2929 13.7071C7.68343 14.0976 8.3166 14.0976 8.70712 13.7071Z" fill="#402A32"/>
<path d="M19.7071 13.7071C19.9185 13.4957 20.1143 13.3338 20.3629 13.2157C20.6076 13.0994 20.9583 13 21.5 13C22.0417 13 22.3924 13.0994 22.6371 13.2157C22.8857 13.3339 23.0815 13.4957 23.2929 13.7071C23.6834 14.0976 24.3166 14.0976 24.7071 13.7071C25.0976 13.3166 25.0976 12.6834 24.7071 12.2929C24.4185 12.0043 24.036 11.6661 23.4955 11.4093C22.951 11.1506 22.3017 11 21.5 11C20.6983 11 20.049 11.1506 19.5045 11.4093C18.964 11.6661 18.5815 12.0043 18.2929 12.2929C17.9024 12.6834 17.9024 13.3166 18.2929 13.7071C18.6834 14.0976 19.3166 14.0976 19.7071 13.7071Z" fill="#402A32"/>
<path d="M17.6699 16.9199C17.1176 16.9199 16.6699 17.3676 16.6699 17.9199C16.6699 18.4722 17.1176 18.9199 17.6699 18.9199C17.9576 18.9199 18.1899 19.1522 18.1899 19.4399C18.1899 19.7276 17.9576 19.9599 17.6699 19.9599C17.1176 19.9599 16.6699 20.4076 16.6699 20.9599C16.6699 20.9599 16.6699 20.9599 16.6699 20.9599C16.6699 21.5122 17.1176 21.96 17.6699 21.96C17.9576 21.96 18.1899 22.1922 18.1899 22.48C18.1899 22.7677 17.9576 23 17.6699 23C17.1176 23 16.6699 23.4477 16.6699 24C16.6699 24.5522 17.1176 25 17.6699 25C19.0622 25 20.1899 23.8722 20.1899 22.48C20.1899 21.9089 20.0002 21.3824 19.6804 20.9599C20.0002 20.5375 20.1899 20.0109 20.1899 19.4399C20.1899 18.0476 19.0622 16.9199 17.6699 16.9199Z" fill="#402A32"/>
</svg>

<svg xmlns="http://www.w3.org/2000/svg" width="32" height="32" fill="none"><path fill="#FFB02E" d="M15.999 29.998c9.334 0 13.999-6.268 13.999-14 0-7.73-4.665-13.998-14-13.998C6.665 2 2 8.268 2 15.999c0 7.731 4.664 13.999 13.999 13.999Z"/><path fill="#402A32" d="M8.707 13.707c.212-.211.407-.373.656-.491.245-.117.595-.216 1.137-.216s.892.1 1.137.216c.249.118.444.28.656.491a1 1 0 0 0 1.414-1.414 4.301 4.301 0 0 0-1.212-.884C11.951 11.151 11.303 11 10.5 11s-1.451.15-1.995.41a4.3 4.3 0 0 0-1.212.883 1 1 0 1 0 1.414 1.414ZM19.707 13.707c.212-.211.407-.373.656-.491.245-.117.595-.216 1.137-.216s.892.1 1.137.216c.249.118.444.28.656.491a1 1 0 0 0 1.414-1.414 4.301 4.301 0 0 0-1.212-.884C22.951 11.151 22.302 11 21.5 11s-1.451.15-1.995.41c-.541.256-.924.594-1.212.883a1 1 0 0 0 1.414 1.414ZM17.67 16.92a1 1 0 1 0 0 2 .52.52 0 1 1 0 1.04 1 1 0 0 0 0 2 .52.52 0 1 1 0 1.04 1 1 0 1 0 0 2 2.52 2.52 0 0 0 2.01-4.04 2.52 2.52 0 0 0-2.01-4.04Z"/></svg>
